!!!COM: Janáček, Leoš [Leo Eugen]
!!!OTL: Příhody lišky Bystroušky (The Cunning Little Vixen), Opera in Three Acts
!!!OMV: Act I, Scene 1: Jak chytili Lisku Bystrousku (How they caught the Vixen Bystrouska)
!!!example: 136
!!!work: Jan-44
**kern	**kern	**dynam	**kern
*part2	*part2	*part2	*part1
*staff3	*staff2	*	*staff1
*I"Piano	*	*	*I"Bass Solo
*I'Pno.	*	*	*I'B. Solo
*clefG2	*clefG2	*	*clefF4
*k[]	*k[]	*	*k[]
*C:	*C:	*	*C:
*M6/4	*M6/4	*	*M6/4
=89	=	=	=
*^	*	*	*
(8ddL	1.d	8aa-XL 8aaa-X	.	1.r
8dd	.	8aa- 8aaa-	.	.
8b-X	.	8ddd	.	.
8f-X	.	8aa-	.	.
8dd	.	8ggg	.	.
8b-J	.	8dddJ	.	.
8f-L	.	8aa-L	.	.
8dd	.	8ggg	.	.
8b-	.	8ddd	.	.
8f-J)	.	8aa-J	.	.
4r	.	4r	.	.
*v	*v	*	*	*
*clefF4	*	*	*
=90	=90	=90	=90
(8B-XL	(8ddL	.	2r
8B-	8dd	.	.
8G-X	8b-X	.	.
8C	8f-X	.	.
8B-	8dd	.	4r
8G-J	8b-J	.	.
8CL	8f-L	.	16%3F-XL
8B-	8dd	.	.
.	.	.	16%3F-
8G-	8b-	.	.
8CJ)	8f-J)	.	16%3F-
4r	4r	.	.
.	.	.	32%3G-XL
.	.	.	32%3G-XJJ
=91	=91	=91	=91
(8B-XL	(8ddL	.	16%3B-XL
8B-	8dd	.	.
.	.	.	16%3B-
8G-X	8b-X	.	.
8C	8f-X	.	16%3B-
8B-	8dd	.	.
.	.	.	16%3B-J
8G-J	8b-J	.	.
8CL	8f-L	.	2.r
8B-)	8dd	.	.
8G-	8b-	.	.
8CJ	8f-J)	.	.
4r	4r	.	.
*clefG2	*	*	*
=92	=92	=92	=92
!!linebreak:original
(8b-X'L	(8ee'L 8ddd	pp	1.r
8b-'	8ee' 8ddd	.	.
8g-X	8bb-X	.	.
8c	8ee	.	.
8b-	8ddd	.	.
8g-J	8aaJ	.	.
8cL	8eeL	.	.
8b-	8ddd	.	.
8g-	8aa	.	.
8cJ)	8ee-XJ)	.	.
4r	4r	.	.
=93	=93	=93	=93
(8b-X'L	(8ee'L 8ddd	.	1.r
8b-'	8ee' 8ddd	.	.
8g-X	8bb-X	.	.
8c	8ee	.	.
8b-	8ddd	.	.
8g-J	8aaJ	.	.
8cL	8eeL	.	.
8b-	8ddd	.	.
8g-	8aa	.	.
8cJ)	8eeJ)	.	.
4r	4r	.	.
*clefF4	*	*	*
=94	=94	=94	=94
(8A-XL	(8cc'L	.	1.r
8A-	8cc'	.	.
8F-X	8a-X	.	.
8BB-X	8d	.	.
8A-	8cc	.	.
8F-J	8a-J	.	.
8BB-L	8dL	.	.
8A-	8cc	.	.
8F-	8a- 8dd	.	.
8BB-J)	8d 8ccc	.	.
4r	8aa-X	.	.
.	8ddJ)	.	.
=95	=95	=95	=95
(8G-XL	(8b-X'L	.	1.r
8G-	8b-'	.	.
8Dn	8g-X	.	.
8AA-X	8c	.	.
8G-	8b-	.	.
8DJ	8g-J	.	.
8AA-L	8cL	.	.
8G-	8b-	.	.
8D	8g- 8cc	.	.
8AA-J)	8c 8bb-X	>	.
4r	8gg-X	.	.
.	8ccJ)	.	.
=96	=96	=96	=96
!!linebreak:original
(8F-XL	(8a-XL	.	2r
8F-	8a-	.	.
8C	8f-X	.	.
8GG-X	8B-X	.	.
8F-	8a-	.	4r
8CJ	8f-J	.	.
8GG-L	8B-L	.	4r
8F-	8a-	.	.
8C	8f-	.	(8A-XL
8GG-J)	8B-J)	.	8A-
4r	4r	]	8A-
.	.	.	8A-J
=97	=97	=97	=97
*	*	*	*^
(8F-XL	(8a-XL	pp	4B	6B-X
8F-	8a-	.	.	.
.	.	.	.	6B-
8C	8f-X	.	4B-X)	.
.	.	.	.	6B-
8GG-X	8B-X	.	.	.
8F-	8a-	.	4r	4ryy
8CJ	8f-J	.	.	.
8GG-L	8B-L	.	2.r	2.ryy
8F-	8a-	.	.	.
8C	8f-	.	.	.
8GG-J)	8B-J)	.	.	.
4r	4r	.	.	.
*	*	*	*v	*v
=98	=98	=98	=98
*	*^	*	*
(8EnL	(8a-XL	1.B-X	.	2r
8E	8a-	.	.	.
8C	8f-X	.	.	.
8GG-X	8B-X	.	.	.
8E	8a-	.	.	4r
8CJ	8f-J	.	.	.
8GG-L	8B-XL	.	.	4r
8E	8a-	.	.	.
8C	8f-	.	.	10B-XL
.	.	.	.	10F-X
8GG-J)	8B-XJ)	.	.	.
.	.	.	.	10F-
4r	4r	.	.	.
.	.	.	.	10F-
.	.	.	.	10F-J
=99	=99	=99	=99	=99
(8EnL	(8a-XL	1.B-X	.	16%3cL
8E	8a-	.	.	.
.	.	.	.	16%3c
8C	8f-X	.	.	.
8GG-X	8B-X	.	.	16%3c
8E	8a-	.	.	.
.	.	.	.	16%3cJ
8CJ	8f-J	.	.	.
8GG-L	8B-XL	.	.	2.r
8E	8a-	.	.	.
8C	8f-	.	.	.
8GG-J)	8B-XJ)	.	.	.
4r	4r	.	.	.
*	*v	*v	*	*
==	==	==	==
*-	*-	*-	*-
!!!CDT: 1854/07/03-1928/08/12
!!!CBL: Hukvaldy, Moravia
!!!CDL: Moravaská Ostrava, Czech Republic
!!!CNT: Czech
!!!AGN: Stage; Opera
!!!MCN: Neumann, František
!!!MDT: 1924/11/06
!!!MGN: Brno National Theatre Orchestra
!!!MLC: Brno, Czechia
!!!MPD: 1924
!!!MPN: Flogl, Arnold; Pelc, Antonin; Snopkova, Bozena; Zavrelova, Hana
!!!ODT: 1923 (rev. 1924)
!!!PDT: 1924
!!!excerpt-start-measure: 89
!!!excerpt-end-measure: 99
!!!excerpt-start-time: 4:22
!!!excerpt-end-time: 4:48
!!!EEV: 2020/01/17
!!!system-decoration: s1{(s2,s3)}
!!!ONB: Converted from MusicXML on 2020/01/17
